X: 24683
T: MacLeod's Farewell
R: reel
M: 4/4
K: Dmajor
DE|F2BF AFEF|D2 DE FABd|e2 fd efdB|ABde dBAG|
F2BF AFEF|D2 DE FABd|e2fd efdB|1 ABde d2:|2 ABde d3||
B|A3 f edfd|A3 f edfd|ABdA BdAB|dBAF E2 DE|
F2BF AFEF|D2DE FABd|e2fd efdB|1 ABde d3:|2 ABde d2||

